X: 1
T: Quand las Purnas
R: bourree 3
S: Qu\'ebec City workshop, from Betsy Hooper
M: 3/8
L: 1/8
K: G
|:\
G A B | c2 B | A d2 | c2 B |\
G A B | c2 B | A d2 | A3 :|
|:\
G A B | c2 B | G A2 | G2 F |\
G A B | c2 B | G A2 | G3 :|
